X: 7531
T:Old French
R:Reel
O:Canada
M:4/4
K:D
(3ABc|\
d2cd Bd AF|DF Ad f2ed|cd ef ge cA\
|1 df ed A2 :|2 d2dc d2 ::
(e2|\
e)f ed c2A2|AE Ac e2dc|BG Bd gf ed\
|1 cA ce a2 :|2 c2A2 A2 :|
